X:1
T:[ID 2-68]
T:[ID 2-68]
T:Bezeichnung standardisiert: Menuet [mit Trio] Men\"uet Con Trio 6.
T:Urheber unbekannt Datum in der hier transkribierten schriftlichen Quelle: 1767
C:Urheber unbekannt
C:Datum in der hier transkribierten schriftlichen Quelle: 1767
L:1/8
M:3/4
K:G
V:1 bass 
V:1
 G,2 D,2 G,,2 | D,2 A,,2 D,,2 | G,2 (3G,A,B, (3G,A,B, | D,2 D,C,B,,A,, | G,,2 G,2 F,2 | %5
 G,2 G,,2 A,2 | B,2 A,2 G,2 | D2 A,2 D,2 | D2 D,2 A,2 | D2 A,2 D,2 | G,2 G,,2 D,2 | G,2 D,2 G,,2 | %12
 G,4 G,2 | G,4 G,2 | C2 D2 D,2 | G,2 D,2 G,,2 :|"^Trio" !fermata!G,,G,G,,G,G,,G, | %17
 A,,A,A,,A,A,,A, | B,,B,A,,A,G,,G, | D2 A,2 D,2 | G,,G,G,,G,G,,G, | A,,A,A,,A,A,,A, | G,2 D2 D,2 | %23
 G,2 D,2 G,,2 :: D,2 D,,2 D,2 | G,2 D,2 G,,2 | D,2 D,,2 D,2 | G,2 D,2 G,,2 | G,,G,G,,G,G,,G, | %29
 A,,A,A,,A,A,,A, | G,2 D2 D,2 | G,2 D,2 G,,2 :| %32

